svg/fluentui-system-icons/ic_fluent_receipt_add_24_regular.svg

<svg width="24" height="24" viewBox="0 0 24 24" fill="none" xmlns="http://www.w3.org/2000/svg">
<path d="M4 5.25C4 4.00736 5.00736 3 6.25 3H15.75C16.9926 3 18 4.00736 18 5.25V14H22V17.75C22 19.5449 20.5449 21 18.75 21H11.9782C12.2747 20.5368 12.5142 20.0335 12.6865 19.5H16.5V5.25C16.5 4.83579 16.1642 4.5 15.75 4.5H6.25C5.83579 4.5 5.5 4.83579 5.5 5.25V11.0764C4.97679 11.1572 4.47417 11.3004 4 11.4982V5.25ZM13.75 12.5H10.6536C9.85015 11.8318 8.88313 11.3537 7.82145 11.1344C7.94293 11.0497 8.09066 11 8.25 11H13.75C14.1642 11 14.5 11.3358 14.5 11.75C14.5 12.1642 14.1642 12.5 13.75 12.5ZM18 19.5H18.75C19.7165 19.5 20.5 18.7165 20.5 17.75V15.5H18V19.5ZM8.25 7C7.83579 7 7.5 7.33579 7.5 7.75C7.5 8.16421 7.83579 8.5 8.25 8.5H13.75C14.1642 8.5 14.5 8.16421 14.5 7.75C14.5 7.33579 14.1642 7 13.75 7H8.25ZM12 17.5C12 14.4624 9.53757 12 6.5 12C3.46243 12 1 14.4624 1 17.5C1 20.5376 3.46243 23 6.5 23C9.53757 23 12 20.5376 12 17.5ZM7.00065 18L7.00111 20.5035C7.00111 20.7797 6.77725 21.0035 6.50111 21.0035C6.22497 21.0035 6.00111 20.7797 6.00111 20.5035L6.00065 18H3.4956C3.21973 18 2.99609 17.7762 2.99609 17.5C2.99609 17.2239 3.21973 17 3.4956 17H6.00046L6 14.4993C6 14.2231 6.22386 13.9993 6.5 13.9993C6.77614 13.9993 7 14.2231 7 14.4993L7.00046 17H9.49659C9.77246 17 9.99609 17.2239 9.99609 17.5C9.99609 17.7762 9.77246 18 9.49659 18H7.00065Z" fill="#212121"/>
</svg>

<svg xmlns="http://www.w3.org/2000/svg" width="24" height="24"><path d="M4 5.25A2.25 2.25 0 0 1 6.25 3h9.5A2.25 2.25 0 0 1 18 5.25V14h4v3.75A3.25 3.25 0 0 1 18.75 21h-6.772c.297-.463.536-.966.709-1.5H16.5V5.25a.75.75 0 0 0-.75-.75h-9.5a.75.75 0 0 0-.75.75v5.826a6.451 6.451 0 0 0-1.5.422V5.25Zm9.75 7.25h-3.096a6.476 6.476 0 0 0-2.833-1.366A.747.747 0 0 1 8.25 11h5.5a.75.75 0 0 1 0 1.5Zm4.25 7h.75a1.75 1.75 0 0 0 1.75-1.75V15.5H18v4ZM8.25 7a.75.75 0 0 0 0 1.5h5.5a.75.75 0 0 0 0-1.5h-5.5ZM12 17.5a5.5 5.5 0 1 0-11 0 5.5 5.5 0 0 0 11 0ZM7 18l.001 2.503a.5.5 0 1 1-1 0V18H3.496a.5.5 0 0 1 0-1H6v-2.5a.5.5 0 1 1 1 0V17h2.497a.5.5 0 0 1 0 1H7Z"/></svg>
